X:1
T:Title
%%score { ( 1 4 ) | ( 2 3 ) }
L:1/8
Q:1/4=100
M:4/4
K:Db
V:1 treble nm="Grand Piano"
V:4 treble 
V:2 bass 
V:3 bass 
V:1
 F2 FF [EA]2 [EA]2 | [DB]4 A2 z2 | F2 FF [A,EA]2 [A,EA]2 |[M:3/4] [DB]4 [CA]2 |[M:1/4] A2 | %5
w: I.~H.~Meredith * * * *|||||
[M:4/4] d2 d2 c2 F2 | B4 z4[Q:1/4=99][Q:1/4=97][Q:1/4=96][Q:1/4=94][Q:1/4=93] | %7
w: ||
[M:9/8] G6- G z z[Q:1/4=91][Q:1/4=90][Q:1/4=88][Q:1/4=87][Q:1/4=85][Q:1/4=84][Q:1/4=82][Q:1/4=81][Q:1/4=79][Q:1/4=78][Q:1/4=76] | %8
w: |
[M:11/8] F-F-F-F-F-F- F3 z2 |] %9
w: |
V:2
 [D,A,D]2 [D,A,D][D,A,D] [C,A,]2 [C,A,]2 | [B,,F,]4 [F,A,C]2 z2 | [D,A,D]2 DD C,2 C,2 | %3
[M:3/4] [B,,F,]4 [F,A,]2 |[M:1/4] [G,A,C]2 |[M:4/4] [F,A,D]2 [F,A,D]2 [F,=A,E]2 [F,A,E]2 | %6
 [B,D]2 C2 [D,D]2 z2 |[M:9/8] z2 [E,B,]- [E,B,] [A,,A,]2- [A,,A,] [D,A,C]2 | %8
[M:11/8] [D,A,D]-[D,A,D]-[D,A,D]-[D,A,D]-[D,A,D]-[D,A,D]- [D,A,D]3 z2 |] %9
V:3
 x8 | x8 | z2 [D,A,]2 z4 |[M:3/4] x6 |[M:1/4] x2 |[M:4/4] x8 | G,4 z4 |[M:9/8] x9 |[M:11/8] x11 |] %9
V:4
 x8 | x8 | x8 |[M:3/4] x6 |[M:1/4] x2 |[M:4/4] x8 | z2 E2 [FA]2 D2 |[M:9/8] z2 D- D C2- C F2 | %8
[M:11/8] x11 |] %9

